X:84
T:Duke of Leinster
Z: id:dc-reel-77
M:C
L:1/8
K:G Major
G3B dBB2|dBeB dBAB|GBB2 dBB2|dBAB GEDE|!
G3B dBB2|dBeB dBAB|GABd g3e|dBAB GEE2|]!
dega bgg2|agbg ageg|dega bage|dBAB GEE2|!
dega bgg2|agbg ageg|bgag efge|dBAB GEDE|]!